X: 1
T: Shottis fr\aan Kronoby
M: 4/4
L: 1/8
K: Am
|: "Am"{e}a2 aa e2 .ez | c>d cB c2 A2 | "E7"B2 Bd c>B A^G |1,3 "Am"A>B cd "E7"e4 \
                                                          :|2,4 "Am"A2 ce a4 :|
|: "C"G4 c3 e |  g2 ga g>f ed | "G"B2 B2 d2 d2 | "E7"e3 f e>d cB \
| "Am"A2 Ac e2 a2 | e>f ed c2 A2 | "E7"B2 Bd c>B A^G | "Am"A2 ce a4 :|
